assets/icons/qvision/stairs.svg

<svg xmlns="http://www.w3.org/2000/svg" enable-background="new 0 0 24 24" height="24" viewBox="0 0 24 24" width="24"><g><rect fill="none" height="24" width="24" x="0"/><g><g><path d="M19,3H5C3.9,3,3,3.9,3,5v14c0,1.1,0.9,2,2,2h14c1.1,0,2-0.9,2-2V5C21,3.9,20.1,3,19,3z M18,8h-2.42v3.33H13v3.33h-2.58 V18H6v-2h2.42v-3.33H11V9.33h2.58V6H18V8z"/></g></g></g></svg>

<svg width="24" height="24" viewBox="0 0 24 24" fill="none" xmlns="http://www.w3.org/2000/svg">
<g clip-path="url(#clip0_147_6300)">
<path d="M19 3H5C3.9 3 3 3.9 3 5V19C3 20.1 3.9 21 5 21H19C20.1 21 21 20.1 21 19V5C21 3.9 20.1 3 19 3ZM18 8H15.58V11.33H13V14.66H10.42V18H6V16H8.42V12.67H11V9.33H13.58V6H18V8Z" fill="#323232"/>
</g>
<defs>
<clipPath id="clip0_147_6300">
<rect width="24" height="24" fill="white"/>
</clipPath>
</defs>
</svg>
